apps/filecoin-site/public/assets/logos/flickr-foundation-logo.svg

<svg width="100%" height="100%" viewBox="0 0 161 48" fill="currentColor" xmlns="http://www.w3.org/2000/svg">
<path d="M45.0826 38.5675C43.3611 41.4921 39.6308 42.6267 36.551 41.0862L32.987 39.3036C32.2314 38.9258 31.3132 39.2314 30.9354 39.987L35.9947 42.5179C34.3429 44.9754 31.1665 45.9266 28.4094 44.7248L27.1819 44.1892L26.7931 44.0193L26.6036 44.3995C25.063 47.4794 21.3963 48.8072 18.2651 47.4989L24.2023 35.632C25.8626 32.3149 29.8974 30.9713 33.2144 32.6304L45.0826 38.5675Z" fill="currentColor"/>
<path d="M17.547 47.2519C14.2336 46.5183 12.0011 43.3211 12.5146 39.9161L13.1088 35.9755C13.2348 35.1404 12.6601 34.3616 11.825 34.2357L10.9814 39.8292C8.13388 39.0174 6.24734 36.2909 6.53833 33.2979L6.66793 31.9652L6.7095 31.5422L6.28891 31.4786C2.88385 30.9651 0.487468 27.8889 0.765008 24.5059L13.8864 26.4853C17.5543 27.0392 20.0791 30.4614 19.5252 34.1293L17.547 47.2519Z" fill="currentColor"/>
<path d="M0.781207 23.7467C0.454761 20.3685 2.8059 17.2581 6.20241 16.6945L10.1332 16.0428C10.9658 15.9046 11.5295 15.1173 11.3913 14.2846L5.80994 15.2102C5.70234 12.2514 7.71237 9.61415 10.6492 8.96615L11.9562 8.67761L12.3706 8.58591L12.301 8.16654C11.7373 4.77004 13.9222 1.53982 17.2245 0.757324L19.396 13.8482C20.0036 17.5075 17.529 20.9664 13.8696 21.574L0.781207 23.7467Z" fill="currentColor"/>
<path d="M17.9526 0.538843C21.0643 -0.815846 24.7493 0.459372 26.3351 3.51598L28.1703 7.05309C28.5591 7.80257 29.4822 8.09478 30.2316 7.70598L27.6262 2.68458C30.4077 1.66734 33.5364 2.76528 35.0599 5.35728L35.7384 6.51146L35.9536 6.87825L36.3302 6.68262C39.3868 5.09686 43.1342 6.17645 44.8972 9.07656L33.1183 15.1873C29.8257 16.8954 25.7714 15.6116 24.0634 12.3178L17.9526 0.538843Z" fill="currentColor"/>
<path d="M45.3323 9.69873C47.5819 12.2394 47.5086 16.1384 45.0914 18.591L42.294 21.4288C41.701 22.0303 41.7084 22.9986 42.3099 23.5904L46.281 19.5606C48.1077 21.8909 48.0306 25.2055 46.0353 27.4564L45.1476 28.4577L44.8664 28.7756L45.1697 29.074C47.6223 31.4911 47.7531 35.3877 45.5401 37.9613L36.0879 28.6473C33.4457 26.043 33.4139 21.7907 36.0182 19.1485L45.3323 9.69873Z" fill="currentColor"/>
<path d="M135.316 17.7793C139.375 17.7793 141.17 20.9276 141.17 24.3473C141.17 27.7658 139.374 30.9154 135.316 30.9154C131.258 30.9154 129.462 27.7671 129.462 24.3473C129.462 20.9276 131.258 17.7793 135.316 17.7793ZM135.316 29.5864C138.022 29.5864 139.473 27.2499 139.473 24.3473C139.473 21.4448 138.022 19.1083 135.316 19.1083C132.61 19.1083 131.159 21.4448 131.159 24.3473C131.159 27.2499 132.61 29.5864 135.316 29.5864Z" fill="currentColor"/>
<path d="M143.485 20.8787C143.485 19.5008 143.485 18.9848 143.386 18.0752H144.935V20.485H144.984C145.55 19.0826 146.607 17.7793 148.207 17.7793C148.576 17.7793 149.018 17.8527 149.289 17.9272V19.5509C148.97 19.4519 148.55 19.403 148.156 19.403C145.697 19.403 145.033 22.1576 145.033 24.4207V30.6195H143.485V20.8787Z" fill="currentColor"/>
<path d="M161 29.5851C161 33.0782 159.425 35.9319 155.121 35.9319C153.473 35.9319 151.973 35.4648 151.334 35.268L151.456 33.7189C152.416 34.2104 153.792 34.6041 155.146 34.6041C159.13 34.6041 159.475 31.7015 159.475 28.1595H159.426C158.59 29.98 157.212 30.6195 155.613 30.6195C151.604 30.6195 150.324 27.1264 150.324 24.3473C150.324 20.5339 151.799 17.7793 155.489 17.7793C157.162 17.7793 158.244 18.0006 159.401 19.5008H159.45V18.074H160.999V29.5851H161ZM155.637 29.2893C158.442 29.2893 159.451 26.6325 159.451 24.3449C159.451 21.3189 158.566 19.1059 155.736 19.1059C152.785 19.1059 152.022 21.9094 152.022 24.3449C152.021 26.8049 153.005 29.2893 155.637 29.2893Z" fill="currentColor"/>
<path fill-rule="evenodd" clip-rule="evenodd" d="M122.981 21.5312C122.491 21.3833 122.006 21.3833 121.492 21.3833C119.442 21.3833 118.291 22.8859 118.291 25.3936V30.8025H113.896V17.9929H117.901V20.3526H117.949C118.706 18.7302 119.809 17.6982 121.711 17.6982C122.225 17.6982 122.763 17.7692 123.2 17.8462L122.981 21.5312Z" fill="currentColor"/>
<path fill-rule="evenodd" clip-rule="evenodd" d="M64.8913 21.0883H62.3042V17.9913H64.9683V17.2064C64.9683 13.3966 66.7473 12.0688 70.2673 12.0688C71.2185 12.0688 71.9509 12.2168 72.512 12.3158L72.2406 15.3651C71.8738 15.2416 71.5083 15.1658 70.8468 15.1658C69.7244 15.1658 69.2867 15.9507 69.2867 17.2064V17.9913H72.4118V21.0883H69.2867V30.8022H64.8913V21.0883Z" fill="currentColor"/>
<path fill-rule="evenodd" clip-rule="evenodd" d="M74.1733 30.8008V12.3584H78.5724V30.8008H74.1733Z" fill="currentColor"/>
<path fill-rule="evenodd" clip-rule="evenodd" d="M80.7271 15.9036V12.6587H85.1176V15.9036H80.7271Z" fill="currentColor"/>
<path fill-rule="evenodd" clip-rule="evenodd" d="M80.7271 30.7994V17.9897H85.1176V30.7994H80.7271Z" fill="currentColor"/>
<path fill-rule="evenodd" clip-rule="evenodd" d="M97.0842 21.6559C96.276 21.1657 95.4715 20.9468 94.4249 20.9468C92.5176 20.9468 91.0529 22.2734 91.0529 24.4864C91.0529 26.5221 92.7609 27.8499 94.6682 27.8499C95.672 27.8499 96.6709 27.631 97.4033 27.2361L97.4986 30.5274C96.3995 30.8979 95.0827 31.0984 93.9077 31.0984C89.708 31.0984 86.5107 28.6397 86.5107 24.4106C86.5107 20.1582 89.7116 17.6982 93.9077 17.6982C95.2257 17.6982 96.4007 17.922 97.4045 18.4123L97.0842 21.6559Z" fill="currentColor"/>
<path fill-rule="evenodd" clip-rule="evenodd" d="M99.3301 12.3584H103.725V23.3756H103.773L107.44 17.9911H112.25L107.83 23.8708L112.615 30.8008H107.293L103.773 24.4552H103.725V30.8008H99.3301V12.3584Z" fill="currentColor"/>
<path d="M125.05 30.8567C125.772 30.8567 126.358 30.271 126.358 29.5485C126.358 28.8259 125.772 28.2402 125.05 28.2402C124.327 28.2402 123.742 28.8259 123.742 29.5485C123.742 30.271 124.327 30.8567 125.05 30.8567Z" fill="currentColor"/>
</svg>

<svg xmlns="http://www.w3.org/2000/svg" fill="currentColor" viewBox="0 0 161 48"><path fill="#9F9FA9" d="M45.083 38.568a6.527 6.527 0 0 1-8.532 2.519l-3.564-1.783a1.529 1.529 0 0 0-2.051.683l5.06 2.531a6.159 6.159 0 0 1-7.586 2.207l-1.228-.535-.388-.17-.19.38c-1.54 3.08-5.207 4.408-8.338 3.1l5.937-11.867a6.718 6.718 0 0 1 9.012-3.002l11.868 5.937ZM17.547 47.252a6.527 6.527 0 0 1-5.032-7.336l.594-3.94a1.529 1.529 0 0 0-1.284-1.74l-.843 5.593a6.159 6.159 0 0 1-4.443-6.531l.13-1.333.041-.423-.42-.063a6.525 6.525 0 0 1-5.525-6.973l13.122 1.98a6.717 6.717 0 0 1 5.639 7.643l-1.979 13.123ZM.782 23.747a6.526 6.526 0 0 1 5.42-7.052l3.932-.652a1.53 1.53 0 0 0 1.258-1.758l-5.582.926a6.16 6.16 0 0 1 4.84-6.244l1.307-.289.414-.092-.07-.419a6.528 6.528 0 0 1 4.924-7.41l2.171 13.092a6.717 6.717 0 0 1-5.526 7.726L.782 23.747ZM17.953.539a6.526 6.526 0 0 1 8.383 2.977l1.835 3.537a1.529 1.529 0 0 0 2.061.653l-2.605-5.021a6.159 6.159 0 0 1 7.433 2.672l.679 1.154.215.367.377-.195a6.525 6.525 0 0 1 8.567 2.394l-11.78 6.11a6.716 6.716 0 0 1-9.054-2.87L17.954.54ZM45.333 9.7a6.526 6.526 0 0 1-.241 8.892l-2.797 2.837a1.528 1.528 0 0 0 .015 2.162l3.971-4.03a6.158 6.158 0 0 1-.245 7.896l-.888 1.001-.281.318.303.298a6.525 6.525 0 0 1 .37 8.888l-9.452-9.314a6.716 6.716 0 0 1-.07-9.499l9.315-9.45ZM135.317 17.78c4.059 0 5.854 3.148 5.854 6.567s-1.796 6.568-5.854 6.568-5.854-3.148-5.854-6.568c0-3.42 1.796-6.568 5.854-6.568Zm0 11.806c2.706 0 4.157-2.336 4.157-5.239 0-2.902-1.451-5.239-4.157-5.239s-4.157 2.337-4.157 5.24c0 2.902 1.451 5.238 4.157 5.238ZM143.485 20.879c0-1.378 0-1.894-.099-2.804h1.549v2.41h.049c.566-1.402 1.624-2.706 3.223-2.706.369 0 .812.074 1.082.148v1.624a4.04 4.04 0 0 0-1.132-.148c-2.46 0-3.124 2.755-3.124 5.018v6.198h-1.548v-9.74ZM161 29.585c0 3.493-1.574 6.347-5.878 6.347-1.648 0-3.148-.467-3.788-.664l.122-1.55a8.51 8.51 0 0 0 3.69.886c3.985 0 4.33-2.902 4.33-6.444h-.049c-.836 1.82-2.214 2.46-3.814 2.46-4.009 0-5.289-3.494-5.289-6.273 0-3.813 1.476-6.568 5.166-6.568 1.672 0 2.754.222 3.911 1.722h.049v-1.427h1.549v11.511H161Zm-5.362-.296c2.805 0 3.813-2.657 3.813-4.944 0-3.026-.885-5.24-3.714-5.24-2.952 0-3.715 2.804-3.715 5.24-.001 2.46.983 4.944 3.616 4.944Z"/><path fill="#9F9FA9" fill-rule="evenodd" d="M122.982 21.53c-.49-.148-.976-.148-1.489-.148-2.051 0-3.201 1.503-3.201 4.01v5.41h-4.396v-12.81h4.006v2.36h.048c.756-1.623 1.859-2.655 3.762-2.655.513 0 1.051.071 1.489.148l-.219 3.685ZM64.892 21.088h-2.587V17.99h2.664v-.785c0-3.81 1.779-5.138 5.299-5.138.951 0 1.683.148 2.245.247l-.272 3.05c-.367-.124-.732-.2-1.394-.2-1.122 0-1.56.785-1.56 2.04v.786h3.125v3.097h-3.125v9.714h-4.395v-9.714ZM74.174 30.8V12.357h4.399V30.8h-4.4ZM80.728 15.903v-3.245h4.39v3.245h-4.39ZM80.728 30.798v-12.81h4.39v12.81h-4.39ZM97.085 21.655c-.808-.49-1.613-.71-2.66-.71-1.907 0-3.372 1.327-3.372 3.54 0 2.036 1.708 3.364 3.616 3.364 1.004 0 2.002-.219 2.735-.614l.095 3.291c-1.099.37-2.416.571-3.59.571-4.2 0-7.398-2.458-7.398-6.687 0-4.253 3.201-6.713 7.397-6.713 1.318 0 2.493.224 3.497.714l-.32 3.244ZM99.33 12.357h4.396v11.018h.048l3.666-5.385h4.81l-4.42 5.88 4.786 6.93h-5.322l-3.52-6.346h-.048V30.8h-4.395V12.357Z" clip-rule="evenodd"/><path fill="#9F9FA9" d="M125.05 30.857a1.309 1.309 0 1 0 0-2.617 1.309 1.309 0 0 0 0 2.617Z"/></svg>
